X:1
T:Flying Indian
L:1/8
M:C
K:G
G4 B2G2|d2B2g3d|ed 2 edB2|1 G2A2 E2D2:|2 G6 d2||
G4 a2ga|b2b2g2d2|ed B2 edB2|1 G2A2E2D2:|2 G8||
